X:1784
T:Rodney's Glory
T:Gloire ui Rodnaig
C:"collected by F.O'Neill"
S:1784 O'Neill's Music of Ireland
B:O'Neill's 1784
Z:Transcribed by Robert Thorpe (thorpe@skep.com)
Z:ABCMUS 1.0
M:2/4
L:1/16
Q:120
K:A
e-d \
| c2B-c ABcA | BGEF G2c-d | efed cdef | {a}-gfge dfed |
| c2B-c ABcA | BGEF G2e-d | !c2B-A GABG | A4 A2 :|
|: d2 \
| eaab aged | efed c3A | g2fg agec | dcAF G2G2 |
| AGAB cBcd | edee a2ab | aged cdef | gfge dfed |
| (3cdc (3BcB ABcA | BGEF G2e-d | c2B-A GABG | A4 A2 :|


